X:1
T:Title
%%score { ( 1 4 ) | ( 2 3 ) }
L:1/8
Q:1/4=124
M:3/4
K:Eb
V:1 treble nm="Grand Piano"
V:4 treble 
V:2 bass 
V:3 bass 
V:1
 G4 G2 | G2 _G2 =G2 | B4 c2 | B4 G2 | E4 E2 | [DF]2 [CE]2 [DF]2 | G4 G2 | G6 | G4 G2 | G2 _G2 =G2 | %10
w: C.~Harold~Lowden *||||||||||
 B4 c2 | B4 G2 | F4 B2 | B2 c2 d2 | d4 c2 | [B,B]6 | [Ge]4 [Ge]2 | [Ae]2 [DBd]2 [Ac]2 | %18
w: ||||||||
 [GB]4 [Ac]2 | [GB]4 [EG]2 | [Ge]4 [Ge]2 | e2 d2 c2 | d4 d2 | [Ad]6 | [Ge]4 [Ge]2 | %25
w: |||||||
 [Ae]2 [Bd]2 [EAc]2 | [EGB]4 [B,EG]2 | [_DGB]4 [CFA]2 | [EG]4 [EG]2 | [EG]2 [DF]2 [B,E]2 | %30
w: |||||
 [DB]4 [EB]2 |[M:2/4] [FB]4 |[M:1/4] [Ac][Ad] |[M:3/4] [Ge]6 | [Ae]4 [Fe]2 | [Ge]6- | %36
w: ||||||
 [Ge]4 [B,EG][FA] | [EGB]6 | [FAB]4 [DFB]2 | [GB]6- |[M:2/4] [GB]4 |[M:1/4] [GB][GB] | %42
w: ||||||
[M:3/4] c4 c2 | d2 c2 d2 | e4 B2 | [GB]4 [FA]2 | [EG]4 [EB]2 | [Dc]4 [DB]2 | [Be]6- | %49
w: |||||||
[M:2/4] [Be]4 |] %50
w: |
V:2
 [E,B,E]4 [E,B,E]2 | B,2 z2 z2 | [E,G,E]4 [E,A,E]2 | [E,G,E]4 [E,B,E]2 | [C,C]4 [C,G,C]2 | %5
 [B,,B,]4 [B,,B,]2 | [E,B,E]4 [E,B,E]2 | [E,B,E]6 | [E,B,E]4 [E,B,E]2 | B,2 z2 z2 | %10
 [E,G,E]4 [E,A,E]2 | [E,G,E]4 [E,B,E]2 | [F,B,D]4 [F,D]2 | D2 E2 [F,B,F]2 | [F,=A,F]4 [F,A,E]2 | %15
 z2 z2 A2 | [E,B,]4 [E,B,]2 | C2 z2 [E,E]2 | [E,E]4 [E,E]2 | [E,E]4 [E,B,]2 | [C,C]4 [C,C]2 | %21
 [F,F]2- [F,B,F]2 [F,=A,F]2 | [B,F]4 [B,G]2 | [B,,B,]6 | [E,B,]4 [E,B,]2 | C2 z2 z2 | E,4 E,2 | %27
 =E,4 F,2 | B,4 B,2 | B,4 z2 | [B,,F,]4 [B,,G,]2 |[M:2/4] [B,,A,]4 |[M:1/4] [B,,B,][B,,B,] | %33
[M:3/4] [E,B,]6 | [E,C]4 [E,A,]2 | [E,B,]6- | [E,B,]4 E,B, | E,6 | D,4 B,,2 | [E,E]6- | %40
[M:2/4] [E,E]4 |[M:1/4] [E,E][E,E] |[M:3/4][K:treble] [A,EA]4 [A,EA]2 | [A,B,F]4 [A,B,F]2 | %44
 [G,B,E]4[K:bass] [G,B,E]2 | [=E,_D]4 [F,C]2 | [B,,B,]4 [B,,G,]2 | [B,,A,]4 [B,,A,]2 | [E,G,E]6- | %49
[M:2/4] [E,G,E]4 |] %50
V:3
 x6 | [E,E]2- [E,=A,E]2 [E,B,E]2 | x6 | x6 | x6 | x6 | x6 | x6 | x6 | [E,E]2- [E,=A,E]2 [E,B,E]2 | %10
 x6 | x6 | x6 | F,4 z2 | x6 | B,,6 | x6 | E,4 z2 | x6 | x6 | x6 | =A,2 z2 z2 | x6 | x6 | x6 | %25
 E,2- [E,D]2 E,2 | x6 | x6 | x6 | z2 A,2 G,2 | x6 |[M:2/4] x4 |[M:1/4] x2 |[M:3/4] x6 | x6 | x6 | %36
 x6 | x6 | x6 | x6 |[M:2/4] x4 |[M:1/4] x2 |[M:3/4][K:treble] x6 | x6 | x4[K:bass] x2 | x6 | x6 | %47
 x6 | x6 |[M:2/4] x4 |] %50
V:4
 x6 | x6 | x6 | x6 | x6 | x6 | x6 | x6 | x6 | x6 | x6 | x6 | x6 | x6 | x6 | D4 z2 | x6 | x6 | x6 | %19
 x6 | x6 | x6 | x6 | x6 | x6 | x6 | x6 | x6 | x6 | x6 | x6 |[M:2/4] x4 |[M:1/4] x2 |[M:3/4] x6 | %34
 x6 | x6 | x6 | x6 | x6 | x6 |[M:2/4] x4 |[M:1/4] x2 |[M:3/4] x6 | x6 | x6 | x6 | x6 | x6 | x6 | %49
[M:2/4] x4 |] %50

